_includes/icons/color-usa.svg

<svg fill="#666" height="50" viewBox="0 0 48 48" width="50" xmlns="http://www.w3.org/2000/svg"><path d="m1.996094 10h44v27h-44z" fill="#eceff1"/><g fill="#f44336"><path d="m2 10h44v3h-44z"/><path d="m2 16h44v3h-44z"/><path d="m2 22h44v3h-44z"/><path d="m2 28h44v3h-44z"/><path d="m2 34h44v3h-44z"/></g><path d="m2 10h21v15h-21z" fill="#3f51b5"/><g fill="#fff"><path d="m4.25 12 .464844.988281 1.035156.15625-.75.769532.179688 1.085937-.929688-.511719-.929687.511719.179687-1.085937-.75-.769532 1.035156-.15625z"/><path d="m8.25 12 .464844.988281 1.035156.15625-.75.769532.179688 1.085937-.929688-.511719-.929687.511719.179687-1.085937-.75-.769532 1.035156-.15625z"/><path d="m12.25 12 .464844.988281 1.035156.15625-.75.769532.179688 1.085937-.929688-.511719-.929687.511719.179687-1.085937-.75-.769532 1.035156-.15625z"/><path d="m16.25 12 .464844.988281 1.035156.15625-.75.769532.179688 1.085937-.929688-.511719-.929687.511719.179687-1.085937-.75-.769532 1.035156-.15625z"/><path d="m20 12 .464844.988281 1.035156.15625-.75.769532.179688 1.085937-.929688-.511719-.929687.511719.179687-1.085937-.75-.769532 1.035156-.15625z"/><path d="m4.25 20 .464844.988281 1.035156.15625-.75.769532.179688 1.085937-.929688-.511719-.929687.511719.179687-1.085937-.75-.769532 1.035156-.15625z"/><path d="m8.25 20 .464844.988281 1.035156.15625-.75.769532.179688 1.085937-.929688-.511719-.929687.511719.179687-1.085937-.75-.769532 1.035156-.15625z"/><path d="m12.25 20 .464844.988281 1.035156.15625-.75.769532.179688 1.085937-.929688-.511719-.929687.511719.179687-1.085937-.75-.769532 1.035156-.15625z"/><path d="m16.25 20 .464844.988281 1.035156.15625-.75.769532.179688 1.085937-.929688-.511719-.929687.511719.179687-1.085937-.75-.769532 1.035156-.15625z"/><path d="m20 20 .464844.988281 1.035156.15625-.75.769532.179688 1.085937-.929688-.511719-.929687.511719.179687-1.085937-.75-.769532 1.035156-.15625z"/><path d="m5.25 16 .464844.988281 1.035156.15625-.75.769532.179688 1.085937-.929688-.511719-.929687.511719.179687-1.085937-.75-.769532 1.035156-.15625z"/><path d="m9.25 16 .464844.988281 1.035156.15625-.75.769532.179688 1.085937-.929688-.511719-.929687.511719.179687-1.085937-.75-.769532 1.035156-.15625z"/><path d="m13.25 16 .464844.988281 1.035156.15625-.75.769532.179688 1.085937-.929688-.511719-.929687.511719.179687-1.085937-.75-.769532 1.035156-.15625z"/><path d="m17.25 16 .464844.988281 1.035156.15625-.75.769532.179688 1.085937-.929688-.511719-.929687.511719.179687-1.085937-.75-.769532 1.035156-.15625z"/><path d="m21 16 .464844.988281 1.035156.15625-.75.769532.179688 1.085937-.929688-.511719-.929687.511719.179687-1.085937-.75-.769532 1.035156-.15625z"/></g></svg>

<svg xmlns="http://www.w3.org/2000/svg" viewBox="0 0 48 48" width="50" height="50" fill="#666"><path d="M 1.996094 10 L 45.996094 10 L 45.996094 37 L 1.996094 37 Z" fill="#eceff1"/><path d="M 2 10 L 46 10 L 46 13 L 2 13 Z" fill="#f44336"/><path d="M 2 16 L 46 16 L 46 19 L 2 19 Z" fill="#f44336"/><path d="M 2 22 L 46 22 L 46 25 L 2 25 Z" fill="#f44336"/><path d="M 2 28 L 46 28 L 46 31 L 2 31 Z" fill="#f44336"/><path d="M 2 34 L 46 34 L 46 37 L 2 37 Z" fill="#f44336"/><path d="M 2 10 L 23 10 L 23 25 L 2 25 Z" fill="#3f51b5"/><path d="M 4.25 12 L 4.714844 12.988281 L 5.75 13.144531 L 5 13.914063 L 5.179688 15 L 4.25 14.488281 L 3.320313 15 L 3.5 13.914063 L 2.75 13.144531 L 3.785156 12.988281 Z" fill="#fff"/><path d="M 8.25 12 L 8.714844 12.988281 L 9.75 13.144531 L 9 13.914063 L 9.179688 15 L 8.25 14.488281 L 7.320313 15 L 7.5 13.914063 L 6.75 13.144531 L 7.785156 12.988281 Z" fill="#fff"/><path d="M 12.25 12 L 12.714844 12.988281 L 13.75 13.144531 L 13 13.914063 L 13.179688 15 L 12.25 14.488281 L 11.320313 15 L 11.5 13.914063 L 10.75 13.144531 L 11.785156 12.988281 Z" fill="#fff"/><path d="M 16.25 12 L 16.714844 12.988281 L 17.75 13.144531 L 17 13.914063 L 17.179688 15 L 16.25 14.488281 L 15.320313 15 L 15.5 13.914063 L 14.75 13.144531 L 15.785156 12.988281 Z" fill="#fff"/><path d="M 20 12 L 20.464844 12.988281 L 21.5 13.144531 L 20.75 13.914063 L 20.929688 15 L 20 14.488281 L 19.070313 15 L 19.25 13.914063 L 18.5 13.144531 L 19.535156 12.988281 Z" fill="#fff"/><path d="M 4.25 20 L 4.714844 20.988281 L 5.75 21.144531 L 5 21.914063 L 5.179688 23 L 4.25 22.488281 L 3.320313 23 L 3.5 21.914063 L 2.75 21.144531 L 3.785156 20.988281 Z" fill="#fff"/><path d="M 8.25 20 L 8.714844 20.988281 L 9.75 21.144531 L 9 21.914063 L 9.179688 23 L 8.25 22.488281 L 7.320313 23 L 7.5 21.914063 L 6.75 21.144531 L 7.785156 20.988281 Z" fill="#fff"/><path d="M 12.25 20 L 12.714844 20.988281 L 13.75 21.144531 L 13 21.914063 L 13.179688 23 L 12.25 22.488281 L 11.320313 23 L 11.5 21.914063 L 10.75 21.144531 L 11.785156 20.988281 Z" fill="#fff"/><path d="M 16.25 20 L 16.714844 20.988281 L 17.75 21.144531 L 17 21.914063 L 17.179688 23 L 16.25 22.488281 L 15.320313 23 L 15.5 21.914063 L 14.75 21.144531 L 15.785156 20.988281 Z" fill="#fff"/><path d="M 20 20 L 20.464844 20.988281 L 21.5 21.144531 L 20.75 21.914063 L 20.929688 23 L 20 22.488281 L 19.070313 23 L 19.25 21.914063 L 18.5 21.144531 L 19.535156 20.988281 Z" fill="#fff"/><path d="M 5.25 16 L 5.714844 16.988281 L 6.75 17.144531 L 6 17.914063 L 6.179688 19 L 5.25 18.488281 L 4.320313 19 L 4.5 17.914063 L 3.75 17.144531 L 4.785156 16.988281 Z" fill="#fff"/><path d="M 9.25 16 L 9.714844 16.988281 L 10.75 17.144531 L 10 17.914063 L 10.179688 19 L 9.25 18.488281 L 8.320313 19 L 8.5 17.914063 L 7.75 17.144531 L 8.785156 16.988281 Z" fill="#fff"/><path d="M 13.25 16 L 13.714844 16.988281 L 14.75 17.144531 L 14 17.914063 L 14.179688 19 L 13.25 18.488281 L 12.320313 19 L 12.5 17.914063 L 11.75 17.144531 L 12.785156 16.988281 Z" fill="#fff"/><path d="M 17.25 16 L 17.714844 16.988281 L 18.75 17.144531 L 18 17.914063 L 18.179688 19 L 17.25 18.488281 L 16.320313 19 L 16.5 17.914063 L 15.75 17.144531 L 16.785156 16.988281 Z" fill="#fff"/><path d="M 21 16 L 21.464844 16.988281 L 22.5 17.144531 L 21.75 17.914063 L 21.929688 19 L 21 18.488281 L 20.070313 19 L 20.25 17.914063 L 19.5 17.144531 L 20.535156 16.988281 Z" fill="#fff"/></svg>
